X:101
T:Kitty in the Lane
B:NFID.093a ("barndance")
101kitty_L_bd
S:JD
L:1/8
M:C
R:hornpipe
Q:280
K:G
dc|: BGBd cBce|dgbg (3ded ^cd|fecA FD^CD|GFGc ed^cd|
BGBd cBce|dgbg (3ded ^cd|1 fecA FD^CD|GG,B,D G2Ac:|\
[2 fecA FDEF|GgdB G2d2||
%B
[M:3/4] g4gg|f6|e3fg2|d6|B3AG2|B2d2g2|f4e2|e2^d2e2|
a6|g4 a2|g2f2e2|f6|f2e2^d2|e2g2f2|e4d2|B4d2|
%C
g6|f4=f2|e2f2g2|d6|B2A2G2|B2d2g2|f4e2|e2^d2e2|
a6|g4a2|g2f2e2|f4e2|d2e2f2|g2b2a2|[g6B6]|d4c2||
%D
[M:4/4] BGBd cBce|dgbg (3ded ^cd|fecA FDEF|GFGc ed^cd|
BGBd cBce|dgbg (3ded ^cd|fecA FDEF|1 GgdB G2Ac:|\
[2 G4 e2f2||
%E
gfga gdBg|e^def ecAe|d^cde dBGB|A^GAB AFDf|
gfga gdBg|e^def ecAe|dBGc EcAF|1 GG,B,D G2Bd:|\
[2 GG,B,D G2Ac||

%%%

